X: 32641
T: Plethen Peswar Luf
R: hornpipe
M: 4/4
K: Dmajor
|:(3GFE|D2 F>A d>AF>D|(3DDD G>B d>BG>E|D2 F>A d2 (3FAd|c2 (3ecB A>G (3GFE|
D>A (3FGA d>A F2|D2 G>B d>B G2|e>d (3dcB A>G (3GFE|D2 d>c d2:|
|:(3FGA|d>AF>A D>AF>A|d>BG>B D>BG>B|d>AF>A d>A (3FGA|c>Ae>A f>Ae>a|
d>Af>A d>A (3FGA|d>Bg>B d>B (3GAB|e>dc>B A>GF>E|D2 (3ddd d2:|

